X: 794
T: Xin zhongguo
%%abc-version 2.0
%%abcx-abcm2ps-target-version 5.9.1 (29 Sep 2008)
%%abc-creator hum2abc beta
%%abcx-conversion-date 2013/10/02 07:52:31
%%abc-edited-by Helmut Schaffrath
%%humdrum-veritas 3240351742
%%humdrum-veritas-data 595657337
%%continueall 1
%%barnumbers 0
L: 1/8
M: 2/4
K: F
c> f d3/ c/ [I:setbarnb 1]| 
c FG2 | 
c c/ d/ c F | 
G4 | 
G A d c | 
A G F E | 
D F G3/ A/ | 
c F E D | 
C4 |]  



